X:1
T:Title
%%score { ( 1 3 ) | ( 2 4 ) }
L:1/8
Q:1/4=88
M:2/4
K:F
V:1 treble nm="Grand Piano"
V:3 treble 
V:2 bass 
V:4 bass 
V:1
 A/B/c F/G/A | DC z A, | A/B/c F/G/A | z2 D2 | CD ED/C/ | z2 A2 | GA =BA/G/ | %7
w: Adam~Geibel * * * * *|||||||
[M:5/8] [Ec][Fd] [EBe]3 |[M:2/4] [Af]2[K:bass][K:treble] [Ad]2 | [Ac]2 [FA]2 | %10
w: |||
 [A,CF][A,CF] .[CEA][DF]/G/ | A[K:bass]C, D,E, | [Af]2 [Ad]2 | [Ac]2 [FA]2 | FF F/E/F/A/ | %15
w: |||||
 [CEG][K:bass]E, G,[K:treble]C | F>F GF | [DB][DF] [Fd]2 | G>G AG | z2 e2 | fc AF | %21
w: ||||||
 D[DB] [DA][G,DG] | [A,CF]2 [B,CE]2 | [F,A,CF]4 |] %24
w: |||
V:2
 F,,[C,F,A,] [C,F,A,][C,F,A,] | F,,[C,F,A,] [C,F,A,][C,F,] | F,,[C,F,A,] [C,F,A,][C,F,A,] | %3
 B,,[D,G,] [D,G,]D, | C,[E,B,] [E,B,][E,B,] | F,,[C,F,A,] [C,F,A,][C,F,] | %6
 G,,[F,G,=B,] [F,G,B,][F,G,B,] |[M:5/8] [C,G,C][C,_A,=B,] [C,G,C]3 |[M:2/4] .[F,C]2 [F,C]C, | %9
 F,C, F,C, | F,F, z/ .GE/ | .[F,CF]2 z2 | .[F,C]2 [F,C]C, | F,C, F,C, | %14
 [G,=B,D][G,B,D] [G,B,D]D/F/ | .C,2 z2 | [F,A,_E]>[F,A,E] [F,A,E][F,A,E] | %17
 [B,,B,][B,,B,] [B,,B,]2 | [G,=B,F]>[G,B,F] [G,B,F][G,B,F] | [C,C][C,C][K:treble] [CG]2 | %20
 [A,CF]C[K:bass] A,F, | D,[G,,G,] [A,,^F,]B,, | C,2 C,2 | F,,4 |] %24
V:3
 x4 | z2 C2 | x4 | ED z G, | x4 | FG z A, | x4 |[M:5/8] x5 |[M:2/4] z[K:bass] [C,C][K:treble] z C | %9
 CC CC | x4 | x[K:bass] x3 | z [C,C] z C | CC CC | x4 | x[K:bass] x2[K:treble] x | x4 | x4 | x4 | %19
 [Ec][EG] z B, | x4 | x4 | x4 | x4 |] %24
V:4
 x4 | x4 | x4 | x4 | x4 | x4 | x4 |[M:5/8] x5 |[M:2/4] x4 | x4 | z2 C,[C,C] | x4 | x4 | x4 | %14
 z2 z [G,=B,] | x4 | x4 | x4 | x4 | x2[K:treble] x2 | x2[K:bass] x2 | x4 | x4 | x4 |] %24

